**kern	**kern	**dynam
*part1	*part1	*part1
*staff2	*staff1	*
*I"Piano	*	*
*clefG2	*clefG2	*
*k[b-]	*k[b-]	*
=1	=1	=1
*	*^	*
4AAA 4AA	4cc	12cL	.
.	.	12f	.
.	.	12aJ	.
4BBBn 4BBn	4dd	12dL	.
.	.	12f	.
.	.	12gJ	.
*	*v	*v	*
=	=	=
(4CC 4C	12r	.
.	12B-L	.
.	12eJ	.
4D	12gL	.
.	12e	.
.	12B-J	.
=	=	=
4E	12r	.
.	12B-L	.
.	12cJ	.
4C)	12gL	.
.	12c	.
.	12B-J	.
=	=	=
*^	*	*
(4F	[2C	12r	<
.	.	12cL 12a	.
.	.	12AJ	.
4F#X	.	12r	.
.	.	12e-XL 12cc	.
.	.	12cJ	.
=	=	=	=
4G	2C]	12r	.
.	.	12enL 12b-	.
.	.	12cJ	.
4G#X)	.	12r	.
.	.	12fL 12dd	.
.	.	12dJ	.
=	=	=	=
4A	[2C	12r	.
.	.	12fL 12cc	.
.	.	12cJ	.
4Bn	.	12r	.
.	.	12a-XL 12ff	.
.	.	12fJ	.
=	=	=	=
4c	2C]	12r	[ mf
.	.	12fL 12g	.
.	.	12ffJ	.
4C	.	12r	.
.	.	12eL 12g	.
.	.	12eeJ	.
*v	*v	*	*
=	=	=
*-	*-	*-
!!!system-decoration: {(s1,s2)}
